icon/fa/box-archive.svg

<svg xmlns="http://www.w3.org/2000/svg" viewBox="0 0 512 512"><!--! Font Awesome Free 6.1.2 by @fontawesome - https://fontawesome.com License - https://fontawesome.com/license/free (Icons: CC BY 4.0, Fonts: SIL OFL 1.1, Code: MIT License) Copyright 2022 Fonticons, Inc.--><path d="M32 432c0 26.5 21.49 48 48 48h352c26.51 0 48-21.49 48-48V160H32v272zm128-196c0-6.6 5.4-12 12-12h168c6.6 0 12 5.4 12 12v8c0 6.6-5.4 12-12 12H172c-6.6 0-12-5.4-12-12v-8zM480 32H32C14.31 32 0 46.31 0 64v48c0 8.8 7.188 16 16 16h480c8.8 0 16-7.2 16-16V64c0-17.69-14.3-32-32-32z"/></svg>

<svg xmlns="http://www.w3.org/2000/svg" viewBox="0 0 512 512" height="1em" width="1em">
<!--! Font Awesome Free 6.1.2 by @fontawesome - https://fontawesome.com License - https://fontawesome.com/license/free (Icons: CC BY 4.0, Fonts: SIL OFL 1.1, Code: MIT License) Copyright 2022 Fonticons, Inc.-->
  <path d="M32 432C32 458.5 53.49 480 80 480h352c26.51 0 48-21.49 48-48V160H32V432zM160 236C160 229.4 165.4 224 172 224h168C346.6 224 352 229.4 352 236v8C352 250.6 346.6 256 340 256h-168C165.4 256 160 250.6 160 244V236zM480 32H32C14.31 32 0 46.31 0 64v48C0 120.8 7.188 128 16 128h480C504.8 128 512 120.8 512 112V64C512 46.31 497.7 32 480 32z"/>
</svg>
